assets/Person frowning/Medium-Light/Flat/person_frowning_flat_medium-light.svg

<svg width="32" height="32" viewBox="0 0 32 32" fill="none" xmlns="http://www.w3.org/2000/svg">
<path d="M24.0874 6.23099C23.698 5.56555 23.099 5.09875 22.4102 4.86039C21.6714 4.61209 21.0324 4.13536 20.6231 3.46992C20.084 2.58598 19.1056 2 17.9974 2C17.5681 2 17.1588 2.08939 16.7894 2.2483C16.2902 2.4668 15.7211 2.4668 15.212 2.2483C14.8426 2.08939 14.4332 2 14.0039 2C12.9057 2 11.9473 2.56612 11.3982 3.43019C10.9689 4.10556 10.33 4.61209 9.57122 4.87032C8.86238 5.10868 8.2434 5.61521 7.85403 6.33031C7.30493 7.36322 7.41475 8.59478 8.04372 9.50851C8.27335 9.8462 8.40313 10.2435 8.40313 10.6407V16.004C8.40313 17.1958 9.16189 18.2585 10.3 18.6558L12.746 19.5H19.2354L21.6813 18.6558C22.8195 18.2684 23.5782 17.2057 23.5782 16.004V10.6407C23.5782 10.2335 23.698 9.83627 23.9376 9.50851C24.6066 8.57491 24.7064 7.2937 24.0874 6.23099Z" fill="#FFF9BA"/>
<path d="M26 30V29.6161C26 24.311 21.5255 20 16 20C10.4745 20.0098 6 24.311 6 29.6161V30H26Z" fill="#FF6723"/>
<path d="M16 24.5C14.6174 24.5 13.5 23.306 13.5 21.8286V18.6714C13.5 17.194 14.6174 16 16 16C17.3826 16 18.5 17.194 18.5 18.6714V21.8286C18.5 23.306 17.3826 24.5 16 24.5Z" fill="#E4B29A"/>
<path d="M12 13.25C12 14.4926 10.9926 15.5 9.75 15.5C8.50736 15.5 7.5 14.4926 7.5 13.25C7.5 12.0074 8.50736 11 9.75 11C10.9926 11 12 12.0074 12 13.25Z" fill="#E4B29A"/>
<path d="M24.5 13.25C24.5 14.4926 23.4926 15.5 22.25 15.5C21.0074 15.5 20 14.4926 20 13.25C20 12.0074 21.0074 11 22.25 11C23.4926 11 24.5 12.0074 24.5 13.25Z" fill="#E4B29A"/>
<path d="M9.13278 11L9.11744 10.3647C9.05303 7.6972 11.1978 5.5 13.8661 5.5H15.4922C15.7989 5.5 16.0747 5.68671 16.1886 5.97146L16.2456 6.11417C16.7012 7.25315 17.8044 8 19.0311 8H21.3091C22.1188 8 22.7823 8.64259 22.8083 9.45186L22.858 11H22.8624L22.4728 17.0648C22.1254 19.6063 19.8982 21.5 17.2725 21.5H14.7387C12.113 21.5 9.88576 19.6063 9.53839 17.0648L9.13278 11Z" fill="#EEBFAA"/>
<path d="M17.3882 18.2236C16.4586 17.7588 15.5414 17.7588 14.6118 18.2236C14.4883 18.2854 14.3381 18.2353 14.2764 18.1118C14.2146 17.9883 14.2647 17.8381 14.3882 17.7764C15.4586 17.2412 16.5414 17.2412 17.6118 17.7764C17.7353 17.8381 17.7853 17.9883 17.7236 18.1118C17.6619 18.2353 17.5117 18.2854 17.3882 18.2236Z" fill="#990838"/>
<path d="M15.49 12.8675L14.8 15.0875C14.66 15.5375 15 15.9975 15.47 15.9975H16.48C16.96 15.9975 17.29 15.5375 17.15 15.0875L16.46 12.8675C16.33 12.3775 15.64 12.3775 15.49 12.8675Z" fill="#D19479"/>
<path d="M14.9383 12.5051C15.0064 12.7727 14.7761 13 14.5 13H11.5C11.2238 13 10.9936 12.7727 11.0617 12.5051C11.2819 11.6399 12.0662 11 13 11C13.9337 11 14.718 11.6399 14.9383 12.5051Z" fill="white"/>
<path d="M20.9383 12.5051C21.0064 12.7727 20.7761 13 20.5 13H17.5C17.2238 13 16.9936 12.7727 17.0617 12.5051C17.2819 11.6399 18.0662 11 19 11C19.9337 11 20.718 11.6399 20.9383 12.5051Z" fill="white"/>
<path d="M14.5 12.75C14.5 12.8356 14.4914 12.9192 14.475 13H12.025C12.0086 12.9192 12 12.8356 12 12.75C12 12.0596 12.5596 11.5 13.25 11.5C13.9404 11.5 14.5 12.0596 14.5 12.75Z" fill="#7D4533"/>
<path d="M20 12.75C20 12.8356 19.9914 12.9192 19.975 13H17.525C17.5086 12.9192 17.5 12.8356 17.5 12.75C17.5 12.0596 18.0596 11.5 18.75 11.5C19.4404 11.5 20 12.0596 20 12.75Z" fill="#7D4533"/>
<path d="M14 12.75C14 12.8377 13.985 12.9218 13.9573 13H12.5427C12.515 12.9218 12.5 12.8377 12.5 12.75C12.5 12.3358 12.8358 12 13.25 12C13.6642 12 14 12.3358 14 12.75Z" fill="black"/>
<path d="M19.5 12.75C19.5 12.8377 19.485 12.9218 19.4573 13H18.0427C18.015 12.9218 18 12.8377 18 12.75C18 12.3358 18.3358 12 18.75 12C19.1642 12 19.5 12.3358 19.5 12.75Z" fill="black"/>
<path d="M12.75 12.5C12.8881 12.5 13 12.3881 13 12.25C13 12.1119 12.8881 12 12.75 12C12.6119 12 12.5 12.1119 12.5 12.25C12.5 12.3881 12.6119 12.5 12.75 12.5Z" fill="white"/>
<path d="M18.25 12.5C18.3881 12.5 18.5 12.3881 18.5 12.25C18.5 12.1119 18.3881 12 18.25 12C18.1119 12 18 12.1119 18 12.25C18 12.3881 18.1119 12.5 18.25 12.5Z" fill="white"/>
<path d="M13.9736 9.3618C14.0353 9.2383 13.9853 9.08813 13.8618 9.02639C13.7383 8.96464 13.5881 9.0147 13.5264 9.13819C13.3507 9.48954 13.0803 9.75813 12.7194 9.91431C12.3568 10.0713 11.8853 10.1221 11.299 10.0048C11.1636 9.97777 11.0319 10.0656 11.0048 10.201C10.9778 10.3364 11.0656 10.4681 11.201 10.4951C11.8647 10.6279 12.4431 10.5787 12.918 10.3732C13.3947 10.1669 13.7493 9.81045 13.9736 9.3618Z" fill="#A56953"/>
<path d="M18.0264 9.3618C17.9646 9.2383 18.0147 9.08813 18.1382 9.02639C18.2617 8.96464 18.4118 9.0147 18.4736 9.13819C18.6493 9.48954 18.9197 9.75813 19.2805 9.91431C19.6431 10.0713 20.1147 10.1221 20.701 10.0048C20.8363 9.97777 20.9681 10.0656 20.9951 10.201C21.0222 10.3364 20.9344 10.4681 20.799 10.4951C20.1353 10.6279 19.5568 10.5787 19.0819 10.3732C18.6053 10.1669 18.2507 9.81045 18.0264 9.3618Z" fill="#A56953"/>
</svg>

<svg xmlns="http://www.w3.org/2000/svg" width="32" height="32" fill="none"><path fill="#FFF9BA" d="M24.087 6.231a3.104 3.104 0 0 0-1.677-1.37c-.739-.249-1.378-.726-1.787-1.391a3.073 3.073 0 0 0-3.834-1.222 1.98 1.98 0 0 1-1.577 0 3.073 3.073 0 0 0-3.814 1.182 3.493 3.493 0 0 1-1.827 1.44 3.076 3.076 0 0 0-1.717 1.46 3.078 3.078 0 0 0 .19 3.179c.23.337.36.734.36 1.132v5.363c0 1.192.758 2.255 1.896 2.652l2.446.844h6.49l2.445-.844a2.794 2.794 0 0 0 1.897-2.652v-5.363c0-.408.12-.805.36-1.132a3.018 3.018 0 0 0 .15-3.278Z"/><path fill="#FF6723" d="M26 30v-.384C26 24.311 21.526 20 16 20c-5.525.01-10 4.311-10 9.616V30h20Z"/><path fill="#E4B29A" d="M16 24.5c-1.383 0-2.5-1.194-2.5-2.671V18.67C13.5 17.194 14.617 16 16 16s2.5 1.194 2.5 2.671v3.158c0 1.477-1.117 2.671-2.5 2.671ZM12 13.25a2.25 2.25 0 1 1-4.5 0 2.25 2.25 0 0 1 4.5 0ZM24.5 13.25a2.25 2.25 0 1 1-4.5 0 2.25 2.25 0 0 1 4.5 0Z"/><path fill="#EEBFAA" d="m9.133 11-.016-.635a4.75 4.75 0 0 1 4.75-4.865h1.625a.75.75 0 0 1 .697.471l.057.143A3 3 0 0 0 19.03 8h2.278a1.5 1.5 0 0 1 1.5 1.452L22.857 11h.004l-.39 6.065c-.347 2.541-2.574 4.435-5.2 4.435H14.74c-2.626 0-4.853-1.894-5.2-4.435L9.132 11Z"/><path fill="#990838" d="M17.388 18.224c-.93-.465-1.847-.465-2.776 0a.25.25 0 1 1-.224-.448c1.07-.535 2.153-.535 3.224 0a.25.25 0 0 1-.224.448Z"/><path fill="#D19479" d="m15.49 12.867-.69 2.22c-.14.45.2.91.67.91h1.01a.7.7 0 0 0 .67-.91l-.69-2.22c-.13-.49-.82-.49-.97 0Z"/><path fill="#fff" d="M14.938 12.505c.068.268-.162.495-.438.495h-3c-.276 0-.506-.227-.438-.495a2 2 0 0 1 3.876 0ZM20.938 12.505c.068.268-.162.495-.438.495h-3c-.276 0-.506-.227-.438-.495a2 2 0 0 1 3.876 0Z"/><path fill="#7D4533" d="M14.5 12.75c0 .086-.009.17-.025.25h-2.45a1.25 1.25 0 1 1 2.475-.25ZM20 12.75c0 .086-.009.17-.025.25h-2.45A1.25 1.25 0 1 1 20 12.75Z"/><path fill="#000" d="M14 12.75a.747.747 0 0 1-.043.25h-1.414A.75.75 0 1 1 14 12.75ZM19.5 12.75a.747.747 0 0 1-.043.25h-1.414a.75.75 0 1 1 1.457-.25Z"/><path fill="#fff" d="M12.75 12.5a.25.25 0 1 0 0-.5.25.25 0 0 0 0 .5ZM18.25 12.5a.25.25 0 1 0 0-.5.25.25 0 0 0 0 .5Z"/><path fill="#A56953" d="M13.974 9.362a.25.25 0 0 0-.448-.224c-.175.352-.446.62-.807.776-.362.157-.834.208-1.42.09a.25.25 0 0 0-.098.491c.664.133 1.242.084 1.717-.122a2.103 2.103 0 0 0 1.056-1.011ZM18.026 9.362a.25.25 0 1 1 .448-.224c.175.352.446.62.806.776.363.157.835.208 1.421.09a.25.25 0 0 1 .098.491c-.664.133-1.242.084-1.717-.122a2.103 2.103 0 0 1-1.056-1.011Z"/></svg>
